!!!OTL: EI DU MEIN LIEBER SCHIFFSMANN MEIN
!!!ARE: Europa, Mitteleuropa, Deutschland
!!!SCT: F0867
!!!YEM: Copyright 1995, estate of Helmut Schaffrath.
**kern
*ICvox
*Ivox
*M2/4
*k[f#c#g#d#]
*E:
=1
{4b
8a
8a
=2
8g#
8b
8ee
8g#
=3
4b
4a
=4
4g#
4e}
=5
{4b
8a
8a
=6
8g#
8b
8ee
8g#
=7
4b
4a
=8
4g#
4e}
=9
{4e
8g#
8b
=10
4e
8g#
8b
=11
2cc#
=12
2b}
=13
{4a
4a
=14
4g#
4g#
=15
2b
=16
2g#}
=17
{4e
8g#
8b
=18
4e
8g#
8b
=19
4a
8cc#
8ee
=20
4g#}
{8b
8ee
=21
4f#
8a
8cc#
=22
4e
8g#
8b
=23
4b
4gg#
=24
2ee}
=25
{4e
8g#
8b
=26
4e
8g#
8b
=27
4a
8cc#
8ee
=28
4g#}
{8b
8ee
=29
4f#
8a
8cc#
=30
4e
8g#
8b
=31
4b
4gg#
=32
2ee}
==
!!!AGN: erzaehlendes Volks - Lied
!!!ONB: ESAC (Essen Associative Code) Database: FINK
!!!AMT: simple duple
!!!AIN: vox
!!!EED: Helmut Schaffrath
!!!EEV: 1.0
*-
